icons/logout-circle-r-line.svg

<svg viewBox="0 0 24 24" fill="currentColor" xmlns="http://www.w3.org/2000/svg"><path d="M12 22C6.47715 22 2 17.5228 2 12C2 6.47715 6.47715 2 12 2C15.2713 2 18.1757 3.57078 20.0002 5.99923L17.2909 5.99931C15.8807 4.75499 14.0285 4 12 4C7.58172 4 4 7.58172 4 12C4 16.4183 7.58172 20 12 20C14.029 20 15.8816 19.2446 17.2919 17.9998L20.0009 17.9998C18.1765 20.4288 15.2717 22 12 22ZM19 16V13H11V11H19V8L24 12L19 16Z"/></svg>

<svg xmlns="http://www.w3.org/2000/svg" viewBox="0 0 24 24">
    <g>
        <path fill="none" d="M0 0h24v24H0z"/>
        <path d="M12 22C6.477 22 2 17.523 2 12S6.477 2 12 2a9.985 9.985 0 0 1 8 4h-2.71a8 8 0 1 0 .001 12h2.71A9.985 9.985 0 0 1 12 22zm7-6v-3h-8v-2h8V8l5 4-5 4z"/>
    </g>
</svg>
